X:1
T: Kindie Burn
C:
R:Strathspey
Q: 128
K:D
M:4/4
L:1/16
|:Ad3|f3g a3g f3e d3=c|((3B2G2B2) ((3d2c2B2) A6 A2|G3B e3G F3A d3f|((3e2f2e2) ((3d2c2B2) A4 a3g|
f3g a3g f3e d3=c|((3B2G2B2) ((3d2c2B2) A4 d3=c|Bd3 g3B Ad3 f3d|((3e2f2g2) ((3g2f2e2) d4:|
|:c4|B4 FB3 ^A3c F^A3|B3c d3e f8|g3f eg3 f3e df3|((3e2f2e2) ((3d2c2B2) A4 a3g|
f3g a3g f3e d3=c|((3B2G2B2) ((3d2c2B2) A4 d3=c|Bd3 g3B Ad3 f3d|((3e2f2g2) ((3g2f2e2) d4:|
